X:11
T:Miss Sparks's Maggot. JJo.011
B:J.Johnson Choice Collection Vol 8 1758
Z:vmp.Simon Wilson 2013 www.village-music-project.org.uk
Z:Dance added by John Chambers 2017
M:6/8
L:1/8
%Q:3/8=120
K:G
|:\
GAB ABc | B2dB2G | ABc def | g3d2B |\
GAB ABc | B2d^c2A | def ge^c | d3D3 :|
|:\
{e}d^cd {e}d^cd | D2d =c2B | cde ABc | BAG FED |\
{a}gfg {a}gfg | gfe dcB | ABc BcA | G3G,3 :|
%%begintext align
%% Lead thro' the 2d Cu. cast up and foot it at top .|
%% Cast off. Lead thro' the Bottom and cast up :| Right
%% Hands across at Bottom :||. Right Hands and
%% Left at top :||: foot it at both Corners and turn :|
%% Lead out on both Sides and turn :||:
%%endtext
